src/img/icons/icon-twitter.svg

<svg width="36" height="36" xmlns="http://www.w3.org/2000/svg"><g fill-rule="nonzero" fill="none"><circle stroke="#4489FF" cx="18" cy="18" r="17.5"/><path d="M28.6 12.55c-.675.375-1.5.6-2.25.675.825-.525 1.425-1.35 1.725-2.325-.75.45-1.575.825-2.55 1.05-.75-.825-1.725-1.35-2.85-1.35-2.175 0-3.975 1.875-3.975 4.275 0 .3 0 .675.075.975-3.3-.15-6.225-1.875-8.175-4.425-.375.6-.525 1.35-.525 2.175 0 1.5.675 2.775 1.725 3.525-.675 0-1.275-.225-1.8-.525v.075c0 2.025 1.35 3.75 3.15 4.2-.3.075-.675.15-1.05.15-.225 0-.525 0-.75-.075.525 1.725 1.95 2.925 3.675 2.925-1.35 1.125-3.075 1.8-4.875 1.8-.3 0-.6 0-.975-.075C10.9 26.8 13 27.55 15.25 27.55c7.275 0 11.25-6.45 11.25-12.075v-.525c.9-.75 1.575-1.5 2.1-2.4z" fill="#4489FF"/></g></svg>

<?xml version="1.0" encoding="UTF-8"?>
<svg width="36px" height="36px" viewBox="0 0 36 36" version="1.1" xmlns="http://www.w3.org/2000/svg" xmlns:xlink="http://www.w3.org/1999/xlink">
    <!-- Generator: sketchtool 53.2 (72643) - https://sketchapp.com -->
    <title>2EA54679-5CD9-481A-AD84-BE86549C8A07</title>
    <desc>Created with sketchtool.</desc>
    <g id="Header-&amp;-Footer" stroke="none" stroke-width="1" fill="none" fill-rule="evenodd">
        <g id="Footer/footer-desktop-1280" transform="translate(-98.000000, -261.000000)" fill-rule="nonzero">
            <g id="icon/social/ico-social-twitter-ghost" transform="translate(98.000000, 261.000000)">
                <circle id="Oval-path" stroke="#4489FF" stroke-width="1" cx="18" cy="18" r="17.5"></circle>
                <path d="M28.6,12.55 C27.925,12.925 27.1,13.15 26.35,13.225 C27.175,12.7 27.775,11.875 28.075,10.9 C27.325,11.35 26.5,11.725 25.525,11.95 C24.775,11.125 23.8,10.6 22.675,10.6 C20.5,10.6 18.7,12.475 18.7,14.875 C18.7,15.175 18.7,15.55 18.775,15.85 C15.475,15.7 12.55,13.975 10.6,11.425 C10.225,12.025 10.075,12.775 10.075,13.6 C10.075,15.1 10.75,16.375 11.8,17.125 C11.125,17.125 10.525,16.9 10,16.6 L10,16.675 C10,18.7 11.35,20.425 13.15,20.875 C12.85,20.95 12.475,21.025 12.1,21.025 C11.875,21.025 11.575,21.025 11.35,20.95 C11.875,22.675 13.3,23.875 15.025,23.875 C13.675,25 11.95,25.675 10.15,25.675 C9.85,25.675 9.55,25.675 9.175,25.6 C10.9,26.8 13,27.55 15.25,27.55 C22.525,27.55 26.5,21.1 26.5,15.475 L26.5,14.95 C27.4,14.2 28.075,13.45 28.6,12.55 Z" id="Shape" fill="#4489FF"></path>
            </g>
        </g>
    </g>
</svg>
